flaticon/user-interface/list.svg

<svg xmlns="http://www.w3.org/2000/svg" width="32" height="32" viewBox="0 0 24 24">
    <path d="M 0 0.199219 L 0 23.800781 L 24 23.800781 L 24 0.199219 Z M 23.199219 23 L 0.800781 23 L 0.800781 1 L 23.199219 1 Z M 23.199219 23"/>
    <path d="M6 7.800781C7.101562 7.800781 8 6.902344 8 5.800781 8 4.695312 7.101562 3.800781 6 3.800781 4.898438 3.800781 4 4.695312 4 5.800781 4 6.902344 4.898438 7.800781 6 7.800781zM6 4.601562C6.660156 4.601562 7.199219 5.136719 7.199219 5.800781 7.199219 6.460938 6.660156 7 6 7 5.339844 7 4.800781 6.460938 4.800781 5.800781 4.800781 5.136719 5.339844 4.601562 6 4.601562zM6 14.199219C7.101562 14.199219 8 13.304688 8 12.199219 8 11.097656 7.101562 10.199219 6 10.199219 4.898438 10.199219 4 11.097656 4 12.199219 4 13.304688 4.898438 14.199219 6 14.199219zM6 11C6.660156 11 7.199219 11.539062 7.199219 12.199219 7.199219 12.863281 6.660156 13.398438 6 13.398438 5.339844 13.398438 4.800781 12.863281 4.800781 12.199219 4.800781 11.539062 5.339844 11 6 11zM6 20.601562C7.101562 20.601562 8 19.703125 8 18.601562 8 17.496094 7.101562 16.601562 6 16.601562 4.898438 16.601562 4 17.496094 4 18.601562 4 19.703125 4.898438 20.601562 6 20.601562zM6 17.398438C6.660156 17.398438 7.199219 17.9375 7.199219 18.601562 7.199219 19.261719 6.660156 19.800781 6 19.800781 5.339844 19.800781 4.800781 19.261719 4.800781 18.601562 4.800781 17.9375 5.339844 17.398438 6 17.398438zM10 6.199219L19.199219 6.199219C19.421875 6.199219 19.601562 6.019531 19.601562 5.800781 19.601562 5.578125 19.421875 5.398438 19.199219 5.398438L10 5.398438C9.777344 5.398438 9.601562 5.578125 9.601562 5.800781 9.601562 6.019531 9.777344 6.199219 10 6.199219zM10 12.601562L19.199219 12.601562C19.421875 12.601562 19.601562 12.421875 19.601562 12.199219 19.601562 11.980469 19.421875 11.800781 19.199219 11.800781L10 11.800781C9.777344 11.800781 9.601562 11.980469 9.601562 12.199219 9.601562 12.421875 9.777344 12.601562 10 12.601562zM10 19L19.199219 19C19.421875 19 19.601562 18.820312 19.601562 18.601562 19.601562 18.378906 19.421875 18.199219 19.199219 18.199219L10 18.199219C9.777344 18.199219 9.601562 18.378906 9.601562 18.601562 9.601562 18.820312 9.777344 19 10 19zM10 19"/>
</svg>

<svg xmlns="http://www.w3.org/2000/svg" width="32" height="32" viewBox="0 0 24 24">
    <path d="M0 .2v23.6h24V.2zM23.2 23H.8V1h22.4zm0 0"/>
    <path d="M6 7.8c1.102 0 2-.898 2-2 0-1.105-.898-2-2-2-1.102 0-2 .895-2 2 0 1.102.898 2 2 2zm0-3.198A1.2 1.2 0 1 1 6 7a1.2 1.2 0 0 1 0-2.4zm0 0M6 14.2c1.102 0 2-.895 2-2 0-1.102-.898-2-2-2-1.102 0-2 .898-2 2 0 1.105.898 2 2 2zM6 11a1.2 1.2 0 1 1 0 2.398A1.2 1.2 0 0 1 6 11zm0 0M6 20.602c1.102 0 2-.899 2-2 0-1.106-.898-2-2-2-1.102 0-2 .894-2 2 0 1.101.898 2 2 2zm0-3.204A1.202 1.202 0 0 1 6 19.8a1.202 1.202 0 0 1 0-2.402zm0 0M10 6.2h9.2a.401.401 0 1 0 0-.802H10a.398.398 0 0 0-.398.403c0 .219.175.398.398.398zm0 0M10 12.602h9.2a.401.401 0 0 0 0-.8L10 11.8a.398.398 0 0 0-.398.398c0 .223.175.403.398.403zm0 0M10 19h9.2a.401.401 0 1 0 0-.8H10a.398.398 0 0 0-.398.402c0 .218.175.398.398.398zm0 0"/>
</svg>
